X:1
T:Title
%%score { 1 | 2 }
L:1/8
M:3/2
K:G
V:1 treble nm="Grand Piano"
V:2 bass 
V:1
 z4 z4 [B,D]2 [B,DG]2 | [DGB]6 [DFB]2 [DGB]2 [CFA]2 | [CG]8 [DFA]2 [DGB]2 | %3
 [DAc]6 [DAc]2 [DAc]2 [DGB]2 |[M:4/4] [DFA]8 |[M:2/4] [DGB]2 [DAc]2 | %6
[M:6/4] [DBd]6 [Gd]2 [GB]2 [=FG]2 | [Ec]6- [Ec]2 [DEB]2 [CEA]2 | [B,DG]6 [B,DG]2 [DGB]2 [CDA]2 | %9
[M:4/4] [B,DG]8 |] %10
V:2
 z4 z4 G,2 G,2 | G,6 B,,2 D,2 D,2 | G,,8 D,2 D,2 | D,6 F,2 G,2 G,2 |[M:4/4] D,8 |[M:2/4] G,2 G,2 | %6
[M:6/4] G,6 [G,B,]2 [G,D]2 [B,,G,]2 | [C,G,]6- [C,G,]2 C,2 C,2 | D,6 D,2 D,2 D,2 |[M:4/4] G,,8 |] %10

